X: 30342
M: 3/8
L: 1/8
K: C
ceG | egc | dfB | c/B/c/d/c |\
ceG | egc | dfB | c2 :|\
|: z |\
gec | gec | gfd | gec |\
ceG | egc | dfB | c2 :|


